X: 46
T:Stanley For Ever. JaW.046
M:C
Q:1/4=200
S:James Winder Ms, Lancashire, 1835-41
R:Air
O:England
A:Wyresdale,Lancashire
H:1/8
Z:vmp.Chris Partington, Aug 2004
K:F
(f/g/)|a4 g4|f2gf e2A2|defg e2A2|defg e2A2|!
a2ba g2ag|f2gf e2A2|defg e2(dc)|d4D4:|!
|:F2A2 F2A2|F2A2 A2GF|G2B2 G2B2|G2B2 B2AG|!
FGAG FGAG|FGAG D2a2|g2fe f2ec |d4D4:|]
